X:1
T:Title
%%score { ( 1 2 ) | ( 3 4 ) }
L:1/8
Q:1/4=100
M:6/8
K:C
V:1 treble nm="Grand Piano"
V:2 treble 
V:3 bass 
V:4 bass 
V:1
 [Ec]2 [Ec] cB[_EA] | [EG]2 [EA] [DG]2 [DF] | E2 E ED[K:bass][^F,C] | D3 z3 | [Ec]2 [Ec] cB[EA] | %5
w: Adam~Geibel * * * *|||||
 [DB]2 [DB] [Dd]2 D | E2 [Ec] [DB]2 [CA] | [B,G]6 | [Ee]2 [EB] .[Fd]2 [B,FA] | %9
w: ||||
 [CEG]2 [CFA] [CEG]2 [G,CE] | [CA]2 [CFA] ^F-[FB][Fc] | d6 | [Gc]2 [Gc] [G^c]2 [Gc] | e2 d cBA | %14
w: |||||
 G2 A .[G,B,F]2[K:bass] [F,B,D] | [E,C]6 |] %16
w: ||
V:2
 z3 ._E3 | x6 | x5[K:bass] x | [G,B,]6 | z3 .E3 | x6 | x6 | x6 | x6 | x6 | z3 .[CA]3 | z3 F,3 | %12
 x6 | x6 | x5[K:bass] x | x6 |] %16
V:3
 [C,G,]2 [C,G,] [C,^F,]2 [C,F,] | [C,G,]2 [C,G,] [B,,G,]2 [B,,G,] | [C,G,C]2 [C,G,C] [D,^F,C]2 D, | %3
 z3 .G3 | [C,G,]2 [C,G,] [A,,G,]2 [C,G,] | [D,G,]2 [D,G,] [B,,G,]2 [B,,G,] | %6
 [C,G,C]2 [C,G,] [D,G,]2 [D,^F,] | [G,,G,]6 | [C,G,]2 [C,G,] z[K:treble] c[K:bass]C, | %9
 C,2 C, C,2 C, | F,2 F, z B,[D,A,] | [B,G]6 | [E,C]2 [E,C] [E,_B,]2 [E,B,] | %13
 [F,A,F]2 [F,A,F] [^F,C_E]2 [F,CE] | [G,CE]2 [G,CE] z EG,, | C,6 |] %16
V:4
 x6 | x6 | x6 | G,,6 | x6 | x6 | x6 | x6 | z3 .[C,A,]3[K:treble][K:bass] | x6 | z3 .D,3 | G,3 z3 | %12
 x6 | x6 | z3 .G,,3 | x6 |] %16

